{ "compressionlevel":-1,
 "height":15,
 "infinite":false,
 "layers":[
        {
         "data":[394, 394, 394, 394, 394, 394, 394, 394, 394, 394, 394, 394, 394, 394, 394,
            394, 1, 1, 1, 1, 1, 1, 1, 1, 1, 1, 1, 1, 1, 394,
            394, 1, 1, 1, 1, 1, 1, 1, 1, 1, 1, 1, 1, 1, 394,
            394, 1, 226, 227, 228, 1, 226, 227, 228, 1, 226, 227, 228, 1, 394,
            394, 1, 258, 259, 260, 1, 258, 259, 260, 1, 258, 259, 260, 1, 394,
            394, 1, 1, 1, 1, 1, 1, 1, 1, 1, 1, 1, 1, 1, 394,
            394, 1, 1, 1, 1, 1, 1, 1, 1, 1, 1, 1, 1, 1, 394,
            226, 227, 228, 1, 226, 227, 228, 1, 226, 227, 228, 1, 226, 227, 228,
            258, 259, 260, 1, 258, 259, 260, 1, 258, 259, 260, 1, 258, 259, 260,
            394, 1, 1, 1, 1, 1, 1, 1, 1, 1, 1, 1, 1, 1, 394,
            394, 1, 1, 1, 1, 1, 1, 1, 1, 1, 1, 1, 1, 1, 394,
            394, 1, 610, 611, 612, 1, 1, 1, 1, 1, 610, 611, 612, 1, 394,
            394, 1, 1, 1, 1, 1, 1, 1, 1, 1, 1, 1, 1, 34, 394,
            394, 1, 1, 1, 1, 1, 1, 1, 1, 1, 1, 1, 2, 161, 394,
            394, 394, 394, 394, 394, 394, 394, 394, 394, 394, 394, 394, 394, 394, 394],
         "height":15,
         "id":1,
         "name":"level",
         "opacity":1,
         "type":"tilelayer",
         "visible":true,
         "width":15,
         "x":0,
         "y":0
        }, 
        {
         "data":[0, 0, 0, 0, 0, 0, 0, 0, 0, 0, 0, 0, 0, 0, 0,
            0, 0, 1026, 0, 0, 0, 0, 0, 0, 0, 0, 0, 0, 0, 0,
            0, 0, 0, 0, 0, 0, 0, 1027, 0, 0, 0, 0, 0, 0, 0,
            0, 0, 0, 0, 0, 0, 0, 0, 0, 0, 0, 0, 0, 0, 0,
            0, 0, 0, 0, 0, 0, 0, 0, 0, 0, 0, 0, 0, 0, 0,
            0, 0, 0, 0, 1027, 0, 0, 0, 0, 0, 0, 0, 0, 0, 0,
            0, 0, 0, 0, 0, 0, 0, 0, 0, 0, 0, 0, 0, 0, 0,
            0, 0, 0, 0, 0, 0, 0, 0, 0, 0, 0, 0, 0, 0, 0,
            0, 0, 0, 0, 0, 0, 0, 0, 0, 0, 0, 0, 0, 0, 0,
            0, 0, 0, 0, 0, 0, 0, 0, 0, 0, 0, 0, 0, 0, 0,
            0, 1029, 0, 0, 0, 0, 0, 0, 0, 0, 0, 0, 0, 0, 0,
            0, 0, 0, 0, 0, 0, 0, 0, 0, 0, 0, 0, 0, 0, 0,
            0, 0, 0, 0, 0, 0, 0, 1027, 0, 0, 0, 0, 0, 0, 0,
            0, 0, 0, 0, 0, 0, 0, 0, 0, 0, 0, 0, 0, 0, 0,
            0, 0, 0, 0, 0, 0, 0, 0, 0, 0, 0, 0, 0, 0, 0],
         "height":15,
         "id":2,
         "name":"entities",
         "opacity":1,
         "type":"tilelayer",
         "visible":true,
         "width":15,
         "x":0,
         "y":0
        }, 
        {
         "data":[0, 0, 0, 0, 0, 0, 0, 0, 0, 0, 0, 0, 0, 0, 0,
            0, 0, 0, 0, 0, 0, 0, 0, 0, 0, 0, 0, 0, 0, 0,
            0, 0, 0, 0, 0, 0, 0, 0, 0, 0, 0, 0, 0, 0, 0,
            0, 0, 0, 0, 0, 0, 0, 0, 0, 0, 0, 0, 0, 0, 0,
            0, 0, 0, 0, 0, 0, 0, 0, 0, 0, 0, 0, 0, 0, 0,
            0, 0, 0, 0, 0, 0, 0, 0, 0, 0, 0, 0, 0, 0, 0,
            0, 0, 0, 0, 0, 0, 0, 0, 0, 0, 0, 0, 0, 0, 0,
            0, 0, 0, 0, 0, 0, 0, 0, 0, 0, 0, 0, 0, 0, 0,
            0, 0, 0, 0, 0, 0, 0, 0, 0, 0, 0, 0, 0, 0, 0,
            0, 0, 0, 0, 0, 0, 0, 0, 0, 0, 0, 0, 0, 0, 0,
            0, 0, 0, 0, 0, 0, 0, 0, 0, 0, 0, 0, 0, 0, 0,
            0, 0, 0, 0, 0, 0, 0, 0, 0, 0, 0, 0, 0, 0, 0,
            0, 0, 0, 0, 0, 0, 0, 0, 0, 0, 0, 0, 0, 0, 0,
            0, 0, 0, 0, 0, 0, 0, 0, 0, 0, 0, 0, 0, 161, 0,
            0, 0, 0, 0, 0, 0, 0, 0, 0, 0, 0, 0, 0, 0, 0],
         "height":15,
         "id":3,
         "name":"on_level",
         "opacity":1,
         "type":"tilelayer",
         "visible":true,
         "width":15,
         "x":0,
         "y":0
        }],
 "nextlayerid":4,
 "nextobjectid":1,
 "orientation":"orthogonal",
 "renderorder":"right-down",
 "tiledversion":"1.12.2",
 "tileheight":16,
 "tilesets":[
        {
         "firstgid":1,
         "source":"..\/tilesets\/main_tileset.tsj"
        }, 
        {
         "firstgid":1025,
         "source":"..\/tilesets\/entities_tileset.tsj"
        }],
 "tilewidth":16,
 "type":"map",
 "version":"1.10",
 "width":15
}