{ "compressionlevel":-1,
 "height":15,
 "infinite":false,
 "layers":[
        {
         "data":[514, 611, 611, 611, 516, 586, 586, 586, 586, 586, 586, 586, 586, 586, 586,
            453, 1, 1, 1, 545, 586, 586, 586, 586, 586, 586, 586, 586, 586, 586,
            578, 611, 515, 1, 578, 611, 611, 611, 516, 586, 514, 611, 611, 611, 516,
            586, 586, 323, 1, 0, 1, 1, 1, 578, 611, 580, 1, 1, 1, 545,
            586, 586, 323, 1, 1, 1, 1, 1, 1, 1, 1, 1, 1, 1, 545,
            586, 586, 578, 611, 516, 1, 1, 1, 514, 611, 516, 1, 1, 1, 545,
            586, 586, 586, 586, 578, 516, 1, 610, 579, 611, 580, 1, 1, 1, 545,
            586, 586, 586, 586, 586, 545, 1, 1, 1, 1, 1, 1, 513, 1, 545,
            514, 611, 516, 586, 586, 545, 1, 514, 611, 611, 611, 515, 580, 1, 545,
            545, 1, 545, 586, 586, 545, 1, 545, 586, 586, 586, 545, 1, 1, 545,
            545, 1, 545, 586, 586, 545, 1, 545, 586, 586, 586, 545, 1, 1, 545,
            545, 1, 545, 586, 586, 545, 1, 545, 586, 586, 586, 545, 1, 1, 545,
            545, 1, 578, 579, 579, 580, 1, 545, 586, 586, 586, 545, 1, 1, 545,
            545, 1, 1, 1, 1, 1, 1, 545, 586, 586, 586, 545, 1, 161, 545,
            578, 611, 611, 611, 611, 611, 611, 580, 586, 586, 586, 578, 611, 611, 580],
         "height":15,
         "id":1,
         "name":"level",
         "opacity":1,
         "type":"tilelayer",
         "visible":true,
         "width":15,
         "x":0,
         "y":0
        }, 
        {
         "data":[0, 0, 0, 0, 0, 0, 0, 0, 0, 0, 0, 0, 0, 0, 0,
            0, 1026, 0, 0, 0, 0, 0, 0, 0, 0, 0, 0, 0, 0, 0,
            0, 0, 0, 0, 0, 0, 0, 0, 0, 0, 0, 0, 0, 0, 0,
            0, 0, 0, 0, 0, 0, 0, 0, 0, 0, 0, 0, 0, 0, 0,
            0, 0, 0, 0, 0, 0, 1027, 0, 0, 0, 0, 0, 0, 0, 0,
            0, 0, 0, 0, 0, 0, 0, 0, 0, 0, 0, 1027, 0, 0, 0,
            0, 0, 0, 0, 0, 0, 0, 0, 0, 0, 0, 0, 0, 0, 0,
            0, 0, 0, 0, 0, 0, 0, 0, 0, 0, 0, 0, 0, 0, 0,
            0, 0, 0, 0, 0, 0, 0, 0, 0, 0, 0, 0, 0, 0, 0,
            0, 1030, 0, 0, 0, 0, 0, 0, 0, 0, 0, 0, 0, 0, 0,
            0, 0, 0, 0, 0, 0, 0, 0, 0, 0, 0, 0, 0, 0, 0,
            0, 0, 0, 0, 0, 0, 0, 0, 0, 0, 0, 0, 0, 0, 0,
            0, 0, 0, 0, 0, 0, 0, 0, 0, 0, 0, 0, 0, 0, 0,
            0, 0, 0, 0, 0, 0, 0, 0, 0, 0, 0, 0, 0, 0, 0,
            0, 0, 0, 0, 0, 0, 0, 0, 0, 0, 0, 0, 0, 0, 0],
         "height":15,
         "id":2,
         "name":"entities",
         "opacity":1,
         "type":"tilelayer",
         "visible":true,
         "width":15,
         "x":0,
         "y":0
        }, 
        {
         "data":[0, 0, 0, 0, 0, 0, 0, 0, 0, 0, 0, 0, 0, 0, 0,
            0, 0, 0, 0, 0, 0, 0, 0, 0, 0, 0, 0, 0, 0, 0,
            0, 0, 0, 0, 0, 0, 0, 0, 0, 0, 0, 0, 0, 0, 0,
            0, 0, 0, 0, 0, 0, 0, 0, 0, 0, 0, 0, 0, 0, 0,
            0, 0, 0, 0, 0, 0, 0, 0, 0, 0, 0, 0, 0, 0, 0,
            0, 0, 0, 0, 0, 0, 0, 0, 0, 0, 0, 0, 0, 0, 0,
            0, 0, 0, 0, 0, 0, 0, 0, 0, 0, 0, 0, 0, 0, 0,
            0, 0, 0, 0, 0, 0, 0, 0, 0, 0, 0, 0, 0, 0, 0,
            0, 0, 0, 0, 0, 0, 0, 0, 0, 0, 0, 0, 0, 0, 0,
            0, 0, 0, 0, 0, 0, 0, 0, 0, 0, 0, 0, 0, 0, 0,
            0, 0, 0, 0, 0, 0, 0, 0, 0, 0, 0, 0, 0, 0, 0,
            0, 0, 0, 0, 0, 0, 0, 0, 0, 0, 0, 0, 0, 0, 0,
            0, 0, 0, 0, 0, 0, 0, 0, 0, 0, 0, 0, 0, 0, 0,
            0, 0, 0, 0, 0, 0, 0, 0, 0, 0, 0, 0, 0, 161, 0,
            0, 0, 0, 0, 0, 0, 0, 0, 0, 0, 0, 0, 0, 0, 0],
         "height":15,
         "id":3,
         "name":"on_level",
         "opacity":1,
         "type":"tilelayer",
         "visible":true,
         "width":15,
         "x":0,
         "y":0
        }],
 "nextlayerid":4,
 "nextobjectid":1,
 "orientation":"orthogonal",
 "renderorder":"right-down",
 "tiledversion":"1.12.2",
 "tileheight":16,
 "tilesets":[
        {
         "firstgid":1,
         "source":"..\/tilesets\/main_tileset.tsj"
        }, 
        {
         "firstgid":1025,
         "source":"..\/tilesets\/entities_tileset.tsj"
        }],
 "tilewidth":16,
 "type":"map",
 "version":"1.10",
 "width":15
}